X:339
T:Coltin’s Waltz,aka. JaW.339
T:Waltz,By Coltins. JaW.339
M:3/4
L:1/8
Q:3/4=50
S:James Winder Ms, Lancashire, 1835-41
R:.Waltz
O:England
A:Wyresdale,Lancashire
Z:vmp.Chris Partington, Aug 2004
K:C
ccc2e2|ggg2e2|ccc2e2|d2z2e2|!
fad3e|fad3c|BdG2{^f}g2|c4:|!
|:”pia”c2|Bd(GABG)|ce(g^fge)|ag(fedc)|Bd(cBAG)|!
Bd(GABG)|ce(g^fge)|ag(fefd)|c4:|!
|:e>e|^g2e2e>e|a2e2e>e|e2e2e2|c2A2d>d|!
^f2d2d>d|g2d2d>d>|d2d2d2|B2G2G2|!
cB(cdef)|gec3c|BdG3B|cd(efg^g)|!
agf3d|gfe3c|BdG2{^f}g2|c4:|

